packages/synapse-interface/assets/icons/ageur.svg

<svg fill="none" height="156" viewBox="0 0 156 156" width="156" xmlns="http://www.w3.org/2000/svg" xmlns:xlink="http://www.w3.org/1999/xlink"><linearGradient id="a" gradientUnits="userSpaceOnUse" x1="77.539" x2="77.539" y1=".929" y2="154.929"><stop offset="0" stop-color="#99b998"/><stop offset="1" stop-color="#fdceaa"/></linearGradient><path d="m77.5391 154.929c42.5259 0 76.9999-34.474 76.9999-77.0004 0-42.5259-34.474-77.000011-76.9999-77.000011-42.526 0-77.000038 34.474111-77.000038 77.000011 0 42.5264 34.474038 77.0004 77.000038 77.0004z" fill="url(#a)" stroke="#000" stroke-width=".962"/><path d="m25.5645 64.122 51.975-51.6434 51.9745 51.6434-25.503 25.3409-25.9719-25.8059-.4666-.4637-.468.4637-25.9875 25.8216z" fill="#fff6f0" stroke="#000" stroke-width="1.925"/><path d="m37.0524 97.5898h20.4197v5.8212h-14.3215v7.391h13.7671v5.821h-13.7671v7.485h14.8759v5.821h-20.9741zm50.2779 0v21.1592c0 3.695-.9856 6.591-2.9567 8.685-1.9403 2.094-4.8354 3.141-8.6853 3.141s-6.7603-1.047-8.7315-3.141c-1.9403-2.094-2.9105-4.99-2.9105-8.685v-21.1592h6.0982v21.1592c0 1.909.4466 3.403 1.3398 4.481.8931 1.078 2.2945 1.617 4.204 1.617s3.3109-.539 4.2041-1.617c.8931-1.078 1.3397-2.572 1.3397-4.481v-21.1592zm27.5947 32.3392h-6.098v-9.702c0-.739-.201-1.34-.601-1.802-.37-.462-1.001-.693-1.894-.693h-7.0223v12.197h-6.0981v-32.3392h12.3814c1.663 0 3.126.2309 4.389.6929 1.262.462 2.309 1.1088 3.141 1.9403.862.801 1.509 1.74 1.94 2.818.462 1.078.693 2.233.693 3.465v1.109c0 1.324-.354 2.571-1.062 3.742-.709 1.139-1.802 2.017-3.28 2.633v.832c1.078.123 1.925.539 2.541 1.247.646.708.97 1.602.97 2.68zm-15.6153-18.018h5.8213c1.478 0 2.602-.339 3.372-1.016.77-.709 1.155-1.694 1.155-2.957v-.554c0-1.078-.385-2.002-1.155-2.772-.77-.801-1.894-1.201-3.372-1.201h-5.8213z" fill="#2a363a"/></svg>

<svg width="156" height="156" viewBox="0 0 156 156" fill="none" xmlns="http://www.w3.org/2000/svg">
<path d="M77.5391 154.929C120.065 154.929 154.539 120.455 154.539 77.9286C154.539 35.4027 120.065 0.928589 77.5391 0.928589C35.0131 0.928589 0.539062 35.4027 0.539062 77.9286C0.539062 120.455 35.0131 154.929 77.5391 154.929Z" fill="url(#paint0_linear_1510_35042)" stroke="black" stroke-width="0.962465"/>
<path d="M25.5645 64.122L77.5395 12.4786L129.514 64.122L104.011 89.4629L78.0391 63.657L77.5725 63.1933L77.1045 63.657L51.117 89.4786L25.5645 64.122Z" fill="#FFF6F0" stroke="black" stroke-width="1.92493"/>
<path d="M37.0524 97.5898H57.4721V103.411H43.1506V110.802H56.9177V116.623H43.1506V124.108H58.0265V129.929H37.0524V97.5898ZM87.3303 97.5898V118.749C87.3303 122.444 86.3447 125.34 84.3736 127.434C82.4333 129.528 79.5382 130.575 75.6883 130.575C71.8384 130.575 68.928 129.528 66.9568 127.434C65.0165 125.34 64.0463 122.444 64.0463 118.749V97.5898H70.1445V118.749C70.1445 120.658 70.5911 122.152 71.4843 123.23C72.3774 124.308 73.7788 124.847 75.6883 124.847C77.5978 124.847 78.9992 124.308 79.8924 123.23C80.7855 122.152 81.2321 120.658 81.2321 118.749V97.5898H87.3303ZM114.925 129.929H108.827V120.227C108.827 119.488 108.626 118.887 108.226 118.425C107.856 117.963 107.225 117.732 106.332 117.732H99.3097V129.929H93.2116V97.5898H105.593C107.256 97.5898 108.719 97.8207 109.982 98.2827C111.244 98.7447 112.291 99.3915 113.123 100.223C113.985 101.024 114.632 101.963 115.063 103.041C115.525 104.119 115.756 105.274 115.756 106.506V107.615C115.756 108.939 115.402 110.186 114.694 111.357C113.985 112.496 112.892 113.374 111.414 113.99V114.822C112.492 114.945 113.339 115.361 113.955 116.069C114.601 116.777 114.925 117.671 114.925 118.749V129.929ZM99.3097 111.911H105.131C106.609 111.911 107.733 111.572 108.503 110.895C109.273 110.186 109.658 109.201 109.658 107.938V107.384C109.658 106.306 109.273 105.382 108.503 104.612C107.733 103.811 106.609 103.411 105.131 103.411H99.3097V111.911Z" fill="#2A363A"/>
<defs>
<linearGradient id="paint0_linear_1510_35042" x1="77.5391" y1="0.928589" x2="77.5391" y2="154.929" gradientUnits="userSpaceOnUse">
<stop stop-color="#99B998"/>
<stop offset="1" stop-color="#FDCEAA"/>
</linearGradient>
</defs>
</svg>
